X: 1
T: Polska i A fr\aan Transrand efter Kalle Alml\"of
O: Dalarna
M: 3/4
L: 1/16
Z: 2009 John Chambers <jc:trillian.mit.edu>
S: handwritten MS of unknown origin, labelled "3+3+7+7" and "CMA 1991"
K: A
[| a3a g4 e3f | g2fe c2d2- d3e | (3f2d2f2 e8 \
| a3a g4 e3f | g2fe c2d2- d3e | (3f2d2f2 e6 B2 |]
|: c3d e2f2 g2ag | e2cd e8 | c2dc B2G2- G2B2 | A3B c2dc B4 \
|  c3d e2f2 g2ag | e2cd e8 | B3d c4 A4 :|
